!!!COM: Anthoni van Noordt
!!!OTL: Fantasia
!!!OMV: 
!!!SCT: 
!!!SCA: 
**kern	**kern	**kern	**kern
*MM120	*MM120	*MM120	*MM120
*e:phr	*e:phr	*e:phr	*e:phr
*clefF4	*clefF4	*clefG2	*clefG2
*k[]	*k[]	*k[]	*k[]
*M2/2	*M2/2	*M2/2	*M2/2
*tb32	*tb32	*tb32	*tb32
=1	=1	=1	=1
1r	1r	1r	2e
.	.	.	4f
.	.	.	4g
=2	=2	=2	=2
1r	1r	1r	4a
.	.	.	4.e
.	.	.	8f
.	.	.	[4g
=3	=3	=3	=3
1r	1r	1r	8g]
.	.	.	16f
.	.	.	16e
.	.	.	8d
.	.	.	8e
.	.	.	2f
=4	=4	=4	=4
1r	4r	1r	2e
.	4E	.	.
.	4F	.	4r
.	4G	.	4b
=5	=5	=5	=5
1r	4A	1r	4.e
.	4.E	.	.
.	.	.	8f
.	.	.	4.g
.	8F	.	.
.	[4G	.	.
.	.	.	8g
=6	=6	=6	=6
1r	8G]	1r	8d
.	16F	.	8e
.	16E	.	.
.	8D	.	8f
.	8E	.	8g
.	2F	.	8a
.	.	.	8d
.	.	.	[4a
=7	=7	=7	=7
1r	2E	4r	4a]
.	.	4B	4g#
.	4r	4c	4a
.	4B	4d	4f#
=8	=8	=8	=8
1r	4.e	4e	1g
.	.	4.B	.
.	8f	.	.
.	4.g	.	.
.	.	8c	.
.	.	[4d	.
.	8g	.	.
=9	=9	=9	=9
1r	8d	8d]	4r
.	8e	16c	.
.	.	16B	.
.	8f	8A	4.a
.	8g	8B	.
.	8a	2c	.
.	8e	.	8b
.	[4a	.	8cc
.	.	.	8dd
=10	=10	=10	=10
1r	4a]	2B	4ee
.	4g#	.	4b
.	4a	4r	4cc
.	4e	4e	[4g
=11	=11	=11	=11
1r	2g	4.B	8g]
.	.	.	8a
.	.	.	4.b
.	.	8c	.
.	2r	4.d	.
.	.	.	8b
.	.	.	4a
.	.	8d	.
=12	=12	=12	=12
1r	4r	8A	2.cc
.	.	8B	.
.	4A	8c	.
.	.	8d	.
.	8E	8e	.
.	8F	8A	.
.	4G	[4d	4b
=13	=13	=13	=13
1r	4A	4d]	4.a
.	4A	4c#	.
.	.	.	8g
.	2D	4d	4f
.	.	4B	4f
=14	=14	=14	=14
4r	2A	1c	2.e
4AA	.	.	.
4C	2G	.	.
4D	.	.	4f
=15	=15	=15	=15
4E	4r	4r	2g
4.BB	8G	4.d	.
.	8A	.	.
.	4B	.	2r
8C	.	8e	.
[4D	4A	8f	.
.	.	8e	.
=16	=16	=16	=16
8D]	8A	8f	4r
16C	8B	8g	.
16BB	.	.	.
8AA	4c	2a	2e
8BB	.	.	.
2C	8A	.	.
.	8B	.	.
.	4c	4e	4a
=17	=17	=17	=17
2BB	4d	2d	2g#
.	8D	.	.
.	8E	.	.
2r	8F	4.c	4a
.	8G	.	.
.	4A	.	4e
.	.	8c	.
=18	=18	=18	=18
4r	2r	4d	4f
4E	.	4B	4g
4.AA	4r	2c	4a
.	4A	.	[4e
8BB	.	.	.
=19	=19	=19	=19
4C	4.G	1r	8e]
.	.	.	8f
4C	.	.	4.g
.	8A	.	.
8GG	4B	.	.
8AA	.	.	16f
.	.	.	16e
8BB	4B	.	8d
8C	.	.	8e
=20	=20	=20	=20
8D	4A	1r	2f
8AA	.	.	.
2D	4A	.	.
.	4.A	.	2e
4C#	.	.	.
.	8G	.	.
=21	=21	=21	=21
4D	4F#	4r	1r
4BB	4G#	4B	.
4AA	2A	4c	.
4F	.	4d	.
=22	=22	=22	=22
4E	2G#	4e	4r
4E	.	4.B	4b
4E	2r	.	4.g
.	.	8c	.
[4BB	.	[4d	.
.	.	.	8a
=23	=23	=23	=23
8BB]	1r	8d]	4g
8C	.	16c	.
.	.	16B	.
4D	.	8A	8f
.	.	8B	8g
8AA	.	2c	4a
8BB	.	.	.
8C	.	.	8e
8D	.	.	8f#
=24	=24	=24	=24
4E	4r	4B	4g
4AA	4E	4c	4a
2D	4F	4A	4f
.	4G	4B	4f
=25	=25	=25	=25
2AA	4A	4c	4.e
.	4.E	4.c	.
.	.	.	8f
2r	.	.	4g
.	8F	8c	.
.	[4G	8B	[4d
.	.	8A	.
=26	=26	=26	=26
1r	8G]	8B	8d]
.	16F	8c	8e
.	16E	.	.
.	8D	4.d	8f
.	8E	.	8g
.	2F	.	4a
.	.	8c	.
.	.	8B	4a
.	.	8A	.
=27	=27	=27	=27
4r	2E	4G#	4b
4AA	.	4.e	4.cc
4C	2r	.	.
.	.	8e	8b
4D	.	4f	4a
=28	=28	=28	=28
4E	2r	8e	4g#
.	.	8d	.
4.AA	.	8c	4a
.	.	8B	.
.	4A	4.c	2r
8BB	.	.	.
[4C	8E	.	.
.	8F	8d	.
=29	=29	=29	=29
8C]	8G	4.e	1r
16BB	8A	.	.
16AA	.	.	.
8GG	4.B	.	.
8AA	.	8e	.
2BB	.	8d	.
.	8A	8c	.
.	4G#	8d	.
.	.	8B	.
=30	=30	=30	=30
4AA	2A	4.c	4r
4A	.	.	4a
.	.	8d	.
4A	4r	2e	4cc
8G	4B	.	4dd
8F	.	.	.
=31	=31	=31	=31
8E	4c	1r	4ee
8C	.	.	.
4G	8d	.	4.b
.	8c	.	.
4G	8d	.	.
.	8e	.	8cc
8D	4f	.	[4dd
8C	.	.	.
=32	=32	=32	=32
8D	4.f	1r	8dd]
8E	.	.	16cc
.	.	.	16b
8F	.	.	8a
8G	8e	.	8b
4AA	8c	.	2cc
.	8d	.	.
4AA	8e	.	.
.	8f#	.	.
=33	=33	=33	=33
4.E	4g	4r	1r
.	4G	4e	.
8E	.	.	.
4D	4d	4f	.
4E	8c	4g	.
.	8B	.	.
=34	=34	=34	=34
4F	4.A	4a	4r
2C	.	4.e	2ee
.	8B	.	.
.	4c	.	.
.	.	8f	.
4G	8B	[4g	8dd
.	8e	.	8cc
=35	=35	=35	=35
4G	8d	8g]	8b
.	8c	16f	8a
.	.	16e	.
4G	4B	8d	8b
.	.	8e	8cc
8D	2A	2f	4dd
8E	.	.	.
8F	.	.	8a
8G	.	.	8b
=36	=36	=36	=36
8A	4r	2.e	4cc
16G	.	.	.
16F	.	.	.
8E	4B	.	4g
8D	.	.	.
8C	4c	.	4a
16D	.	.	.
16C	.	.	.
8BB	4d	4d	4b
16C	.	.	.
16BB	.	.	.
=37	=37	=37	=37
8AA	4e	4c	4cc
8A	.	.	.
8G	4.B	2g	4dd
8F	.	.	.
4E	.	.	4ee
.	8c	.	.
8BB	[4d	4g	[4dd
8C	.	.	.
=38	=38	=38	=38
8D	8d]	2f	4dd]
8E	16c	.	.
.	16B	.	.
8F	8A	.	8cc
8G	8B	.	8b
8A	2c	2e	4a
8AA	.	.	.
8C	.	.	4a
8D	.	.	.
=39	=39	=39	=39
4E	4B	4e	4g#
4F	4A	4d	2a
2E	2A	2e	.
.	.	.	4g#
=40	=40	=40	=40
1AA	2A	1c#	1a
.	4r	.	.
.	4A	.	.
=41	=41	=41	=41
1r	4c	1r	8r
.	.	.	8ee
.	4d	.	16dd
.	.	.	16ee
.	.	.	16cc
.	.	.	16dd
.	4e	.	8b
.	.	.	8g
.	[4B	.	8b
.	.	.	8cc
=42	=42	=42	=42
1r	8B]	1r	4.dd
.	8c	.	.
.	4.d	.	.
.	.	.	16cc
.	.	.	16b
.	.	.	8a
.	16c	.	8b
.	16B	.	.
.	8A	.	8cc
.	8B	.	8dd
=43	=43	=43	=43
1r	2c	4r	8ee
.	.	.	8dd
.	.	4e	8ee
.	.	.	8a
.	8B	4g	8dd
.	8e	.	8g
.	16d	4a	4f#
.	16e	.	.
.	16c	.	.
.	16d	.	.
=44	=44	=44	=44
1r	8B	4b	2g
.	8G	.	.
.	8A	4.e	.
.	8B	.	.
.	4.c	.	2r
.	.	8f#	.
.	.	[4g	.
.	16B	.	.
.	16A	.	.
=45	=45	=45	=45
2r	8G	8g]	1r
.	8A	16f	.
.	.	16e	.
.	8B	8d	.
.	8c	8e	.
8r	8d	2f	.
8F	8A	.	.
16E	4B	.	.
16F	.	.	.
16D	.	.	.
16E	.	.	.
=46	=46	=46	=46
8C	1c	2e	1r
8AA	.	.	.
8C	.	.	.
8D	.	.	.
8E	.	8r	.
8F	.	8a	.
4E	.	16g	.
.	.	16a	.
.	.	16f	.
.	.	16g	.
=47	=47	=47	=47
2A	1r	8e	4r
.	.	8c	.
.	.	8f	4a
.	.	8g	.
8r	.	2a	4cc
8A	.	.	.
16G	.	.	4dd
16A	.	.	.
16F	.	.	.
16G	.	.	.
=48	=48	=48	=48
8E	4r	2.g	4ee
8C	.	.	.
8E	8G	.	4.b
8F	8A	.	.
4.G	8B	.	.
.	8A	.	8cc
.	8B	4g	[4dd
16F	8c	.	.
16E	.	.	.
=49	=49	=49	=49
8D	4d	4f	8dd]
8E	.	.	16cc
.	.	.	16b
8F	4.c	4f	8a
8G	.	.	8b
8A	.	4e	2cc
8G	8B	.	.
8F	[4A	[4f	.
8E	.	.	.
=50	=50	=50	=50
4D	8A]	8f]	2b
.	8A	8f	.
4E	4G#	16e	.
.	.	16f	.
.	.	16d	.
.	.	16e	.
2AA	4A	8c	4r
.	.	8A	.
.	8A	8c	4a
.	8B	8d	.
=51	=51	=51	=51
4r	8c	2e	4g
.	16B	.	.
.	16A	.	.
4E	16G	.	2cc
.	16A	.	.
.	16B	.	.
.	16c	.	.
4F	4d	8r	.
.	.	8a	.
4G	4d	16g	4b
.	.	16a	.
.	.	16f	.
.	.	16g	.
=52	=52	=52	=52
4A	2c	8e	4.cc
.	.	8c	.
4.E	.	8e	.
.	.	8f	8cc
.	2r	4.g	4.b
8F	.	.	.
[4G	.	.	.
.	.	16f	8a
.	.	16e	.
=53	=53	=53	=53
8G]	4r	8d	8b
16F	.	8e	8cc
16E	.	.	.
8D	4.A	4f	4dd
8E	.	.	.
2F	.	4.c	4.a
.	8B	.	.
.	4c	.	.
.	.	8d	8b
=54	=54	=54	=54
1E	4G	4e	8cc
.	.	.	8ee
.	4A	4f	16dd
.	.	.	16ee
.	.	.	16cc
.	.	.	16dd
.	4B	2g	8b
.	.	.	8g
.	4G	.	8b
.	.	.	8cc
=55	=55	=55	=55
1r	8r	4f	2dd
.	8d	.	.
.	16c	4g	.
.	16d	.	.
.	16B	.	.
.	16c	.	.
.	8A	2a	4.cc
.	8F	.	.
.	8A	.	.
.	8B	.	8dd
=56	=56	=56	=56
1r	4c	8r	8ee
.	.	8a	8cc
.	4B	16g	4dd
.	.	16a	.
.	.	16f	.
.	.	16g	.
.	4c	8e	4cc
.	.	8c	.
.	4A	8e	4cc
.	.	8f	.
=57	=57	=57	=57
8r	2e	1g	2b
8E	.	.	.
16D	.	.	.
16E	.	.	.
16C	.	.	.
16D	.	.	.
8BB	2d	.	4r
8GG	.	.	.
8BB	.	.	4g
8C	.	.	.
=58	=58	=58	=58
4D	8r	1r	4f
.	8d	.	.
4E	16c	.	4g
.	16d	.	.
.	16B	.	.
.	16c	.	.
4.F	8A	.	2a
.	8F	.	.
.	8A	.	.
8G	8B	.	.
=59	=59	=59	=59
4A	4c	1r	8e
.	.	.	8cc
4D	4.d	.	16b
.	.	.	16cc
.	.	.	16a
.	.	.	16b
2E	.	.	8g#
.	8c	.	8e
.	8B	.	8g#
.	8A	.	8a
=60	=60	=60	=60
1r	8G#	4r	4b
.	8e	.	.
.	16d	4a	4cc
.	16e	.	.
.	16c	.	.
.	16d	.	.
.	8B	4g	2dd
.	8G	.	.
.	8A	4f	.
.	8B	.	.
=61	=61	=61	=61
1r	8c	4e	4g
.	8B	.	.
.	8A	8f	4.cc
.	8G	8g	.
.	4F	4a	.
.	.	.	8dd
.	4G	8d	4b
.	.	16g	.
.	.	16f	.
=62	=62	=62	=62
4r	2c	8e	2cc
.	.	8f	.
4E	.	8g	.
.	.	8e	.
4F	8r	4a	2r
.	16d	.	.
.	16c	.	.
4G	8B	8g	.
.	8d	8f	.
=63	=63	=63	=63
4A	8c	8e	1r
.	8d	8f	.
4.E	8e	8g	.
.	8f#	8a	.
.	4g	4.b	.
8F	.	.	.
[4G	[4d	.	.
.	.	8b	.
=64	=64	=64	=64
8G]	8d]	2a	2r
16F	8e	.	.
16E	.	.	.
8D	4f	.	.
8E	.	.	.
2F	4c	2r	8r
.	.	.	16cc
.	.	.	16b
.	4d	.	8a
.	.	.	8dd
=65	=65	=65	=65
2E	2e	4r	8g
.	.	.	8a
.	.	4g	8b
.	.	.	8cc
8r	2r	4f	4.dd
16D	.	.	.
16C	.	.	.
8BB	.	4g	.
8C	.	.	8ee
=66	=66	=66	=66
8AA	2r	4a	4cc
8BB	.	.	.
8C	.	8e	4cc
8D	.	8f#	.
2E	8r	4g	4.b
.	16B	.	.
.	16A	.	.
.	8G	4e	.
.	8c	.	8g
=67	=67	=67	=67
2F	8A	2r	8a
.	8B	.	8dd
.	8c	.	8a
.	8d	.	8b
2C	4e	8r	2cc
.	.	16g	.
.	.	16f	.
.	4c	8e	.
.	.	8g	.
=68	=68	=68	=68
2r	8B	8d	4r
.	8G	8e	.
.	4d	8f	4a
.	.	8g	.
8r	2r	4.a	4cc
16A	.	.	.
16G	.	.	.
8F	.	.	4dd
8G	.	8b	.
=69	=69	=69	=69
8C	1r	4.g	4ee
8D	.	.	.
8E	.	.	4.b
8F	.	16f	.
.	.	16e	.
8G	.	8d	.
16F	.	8e	8cc
16E	.	.	.
16D	.	[4f	[4dd
16E	.	.	.
16F	.	.	.
16G	.	.	.
=70	=70	=70	=70
[2A	1r	8f]	8dd]
.	.	16e	16cc
.	.	16d	16b
.	.	8c	8a
.	.	8d	8b
8A]	.	8e	2cc
16G	.	8f	.
16F	.	.	.
8E	.	4g	.
8F	.	.	.
=71	=71	=71	=71
4.G	8r	2r	1b
.	16d	.	.
.	16c	.	.
.	8B	.	.
8F	8d	.	.
2E	8G	4r	.
.	8A	.	.
.	8B	4e	.
.	8c	.	.
=72	=72	=72	=72
8r	4.d	4f	1r
16D	.	.	.
16C	.	.	.
8BB	.	4g	.
8E	8B	.	.
8AA	4.c	4a	.
8BB	.	.	.
8C	.	[4e	.
8D	16B	.	.
.	16A	.	.
=73	=73	=73	=73
4.E	8G	8e]	1r
.	8A	8f	.
.	4.B	4.g	.
8F	.	.	.
4.G	.	.	.
.	8A	16f	.
.	.	16e	.
.	8B	8d	.
16F	8c	8e	.
16E	.	.	.
=74	=74	=74	=74
8D	8d	2f	2r
8E	16c	.	.
.	16B	.	.
8F	8A	.	.
8G	8B	.	.
2A	2c	2e	8r
.	.	.	16ee
.	.	.	16dd
.	.	.	8cc
.	.	.	8ee
=75	=75	=75	=75
4G#	1r	8r	8b
.	.	16e	8cc
.	.	16d	.
8A	.	8c	8a
8D	.	8d	8b
2E	.	8B	8g#
.	.	8c	4a
.	.	8d	.
.	.	8e	8g#
=76	=76	=76	=76
2D	4r	8f	2a
.	.	16e	.
.	.	16d	.
.	4A	8c	.
.	.	8d	.
8r	4c	4e	4r
16A	.	.	.
16G	.	.	.
8F	4d	4r	8a
8G	.	.	8b
=77	=77	=77	=77
8C	4e	1r	4cc
8D	.	.	.
8E	4.B	.	4g
8F	.	.	.
8G	.	.	8r
8A	8c	.	16cc
.	.	.	16b
[4F	[4d	.	8a
.	.	.	8dd
=78	=78	=78	=78
4F]	8d]	2r	8a
.	16c	.	8b
.	16B	.	.
4F	8A	.	8cc
.	8B	.	8dd
4.E	2c	8r	2ee
.	.	16g	.
.	.	16f	.
.	.	8e	.
8F	.	8a	.
=79	=79	=79	=79
4G	2B	8d	2r
.	.	8e	.
8D	.	8f	.
8E	.	8g	.
4F	8r	2a	4r
.	16c	.	.
.	16B	.	.
4F	8A	.	[4dd
.	8d	.	.
=80	=80	=80	=80
4G	8B	1r	8dd]
.	8c	.	8cc
4.G	8d	.	4b
.	16e	.	.
.	16d	.	.
.	4c#	.	4.a
16F	.	.	.
16E	.	.	.
8F	4d	.	.
8D	.	.	8b
=81	=81	=81	=81
2E	4B	8r	4g#
.	.	16e	.
.	.	16d	.
.	2A	8c	4a
.	.	8d	.
2E	.	4B	8b
.	.	.	8cc
.	4G#	4B	8dd
.	.	.	8b
=82	=82	=82	=82
1r	4A	8A	4cc
.	.	16e	.
.	.	16f	.
.	4E	8g	4cc
.	.	8e	.
.	4F	16a	4cc
.	.	16g	.
.	.	16f	.
.	.	16e	.
.	4G	8d	4b
.	.	8g	.
=83	=83	=83	=83
1r	4A	8c	4a
.	.	8B	.
.	4.E	8c	8g
.	.	8d	8f#
.	.	4e	8g
.	8F	.	8a
.	[4G	8d	[4b
.	.	8c	.
=84	=84	=84	=84
1r	8G]	8d	8b]
.	16F	8e	8cc
.	16E	.	.
.	8D	4.f	4dd
.	8E	.	.
.	2F	.	2a
.	.	16e	.
.	.	16d	.
.	.	16c	.
.	.	16d	.
.	.	16e	.
.	.	16f	.
=85	=85	=85	=85
4r	8E	4g	1r
.	16B	.	.
.	16c	.	.
4BB	8d	4g	.
.	8B	.	.
4C	16e	4g	.
.	16d	.	.
.	16c	.	.
.	16B	.	.
4D	8A	4f	.
.	8d	.	.
=86	=86	=86	=86
4E	8G	4e	1r
.	8F#	.	.
4.BB	8G	8d	.
.	8A	8c	.
.	4B	8d	.
8C	.	8e	.
[4D	8A	[4f	.
.	8G	.	.
=87	=87	=87	=87
8D]	8A	8f]	2r
16C	8B	8g	.
16BB	.	.	.
8AA	4.c	4a	.
8BB	.	.	.
2C	.	8e	4r
.	8B	8d	.
.	[4A	8c	4a
.	.	8e	.
=88	=88	=88	=88
2BB	4A]	4.d	8b
.	.	.	8cc
.	4G#	.	4.dd
.	.	8e	.
2r	2A	8f	.
.	.	8g	8dd
.	.	[4e	8cc
.	.	.	8b
=89	=89	=89	=89
8r	1r	4e]	4cc
16E	.	.	.
16F	.	.	.
8G	.	4B	4g
8E	.	.	.
16A	.	4c	4e
16G	.	.	.
16F	.	.	.
16E	.	.	.
8F	.	4d	8a
8G	.	.	8b
=90	=90	=90	=90
8C	1r	4e	8cc
8D	.	.	16b
.	.	.	16a
8E	.	4.B	8g
8F	.	.	16f
.	.	.	16e
8G	.	.	8d
16F	.	8c	8e
16E	.	.	.
8D	.	[4d	8f
8E	.	.	8g
=91	=91	=91	=91
2F	1r	8d]	8a
.	.	16c	8b
.	.	16B	.
.	.	8A	8cc
.	.	8B	8dd
[2E	.	2c	8ee
.	.	.	8a
.	.	.	8g#
.	.	.	8f#
=92	=92	=92	=92
2E]	2r	2B	4g#
.	.	.	4e
2r	4r	2r	4f
.	4E	.	4g
=93	=93	=93	=93
1r	4F	4r	4a
.	4G	4B	4.e
.	4A	4.c	.
.	.	.	8f
.	[4E	.	[4g
.	.	8d	.
=94	=94	=94	=94
1r	8E]	4e	8g]
.	8F	.	16f
.	.	.	16e
.	8G	8B	8d
.	16F	8c	8e
.	16E	.	.
.	8D	8d	2f
.	8E	16c	.
.	.	16B	.
.	8F	8A	.
.	8G	8B	.
=95	=95	=95	=95
2r	2A	4.c	4e
.	.	.	4a
.	.	8d	.
4r	2r	8e	4cc
.	.	8c	.
4BB	.	4g	4dd
=96	=96	=96	=96
4C	2r	4g	4ee
4D	.	4f#	4.b
4E	4r	2g	.
.	.	.	8cc
[4BB	4B	.	[4dd
=97	=97	=97	=97
8BB]	4.F#	1r	8dd]
8C	.	.	16cc
.	.	.	16b
8D	.	.	8a
16C	8G	.	8b
16BB	.	.	.
8AA	8A	.	2cc
8BB	16G	.	.
.	16F	.	.
8C	8E	.	.
8D	8F#	.	.
=98	=98	=98	=98
4.E	8G#	4r	2b
.	8A	.	.
.	4G#	4B	.
8D	.	.	.
4C	2A	4c	2r
4BB	.	4d	.
=99	=99	=99	=99
8C	1r	4e	4r
8D	.	.	.
8E	.	4.B	4g
8F	.	.	.
8G	.	.	8d
16F	.	8c	8e
16E	.	.	.
8D	.	[4d	8f
8E	.	.	8g
=100	=100	=100	=100
4.F	1r	8d]	4a
.	.	16c	.
.	.	16B	.
.	.	8A	4f
16E	.	8B	.
16D	.	.	.
8C	.	2c	4e
8BB	.	.	.
4AA	.	.	4a
=101	=101	=101	=101
4r	4r	4B	2g#
8E	4B	2e	.
8D	.	.	.
4C	4c	.	4a
4BB	4d	8f#	4b
.	.	8g	.
=102	=102	=102	=102
8AA	4e	4a	4cc
8A	.	.	.
8G	4.B	8b	4dd
8F	.	8a	.
4E	.	4g	4ee
.	8c	.	.
8BB	[4d	8r	4dd
8C	.	8g	.
=103	=103	=103	=103
8D	8d]	4f	2a
8E	16c	.	.
.	16B	.	.
8F	8A	4f	.
8G	8B	.	.
8A	2c	2e	4r
8G	.	.	.
8F	.	.	[4a
8E	.	.	.
=104	=104	=104	=104
2D	2.B	2f	4a]
.	.	.	8b
.	.	.	8a
4E	.	2e	2g#
4D	4B	.	.
=105	=105	=105	=105
2C#	2.A	4r	4a
.	.	2e	4g
2D	.	.	2f
.	8B	[4d	.
.	8A	.	.
=106	=106	=106	=106
4.E	2G#	4d]	[1e
.	.	8c	.
8D	.	8B	.
8C	2A	2c	.
8BB	.	.	.
4AA	.	.	.
=107	=107	=107	=107
1E;	1G#;	1B;	1e];
==	==	==	==
*-	*-	*-	*-
!!!ENC: Peter van Kranenburg (peter@musical-style-recognition.net)
!!!END: 2020-01-09
